X: 2
T: The Meeting of the Waters
R: march
Z: 1997 by John Chambers <jc:trillian.mit.edu>
M: C
L: 1/8
K: A
"^A"[|] EF \
|  "A"A2 Ac E2 A>G | "D"FA FD "A"E2 A>B |\
[1 "A"ce Ee dc BA | "B7"c4 "E7"B2 :|\
[2 "A"ce dc "E7"dE GB | "A"A2- "D"A2- "A"A2 |]
"^B"|: e>d \
|  "A"c2 e>c A2 cA | "D"FA FD "A"E2 A>B |\
[1 "A"ce Ee dc BA | "B7"c4 "E7"B2 :|\
[2 "A"ce dc "E7"dE GB | "A"A2- "D"A2- "A"A2 :|
"^C"[| EF \
|  "A"A2 A>B c2 cd | "A"eE "D"FA "A"E2 "(E)"e>d \
| "A"c2 cd ec BA | "B7"c4 "E7"B2 EF |\
| "A"A2 A>B c2 cd | ec BA "D"F2 A>B \
| "A"ce dc "E7"dE GB | "A"A2- "D"A2- "A"A2 |]
"^D"|: e>d \
|  "A"c2 e>d ce cA | "D"FA dF "A"E2 A>G |\
[1 "D"FD FA "Bm"dc BA | "B7"c4 "E7"B2 :|\
[2 "A"ce dc "E7"dE GB | "A"A2- "D"A2- "A"A2 :|

%%text Portland has only the A & B parts of Meeting of the Waters.
